!!!OTL: 374. Mein herzigs Liesel.
!!!COM: Dan. Schubart
!!!ODT: 1782
!!!ARE: Europa, Mitteleuropa, Deutschland
!!!SCT: B0374
!!!TXL: @@DE
!!!YEM: Copyright 1995, estate of Helmut Schaffrath.
**kern	**text
*ICvox	*
*Ivox	*
*clefG2	*
*M3/4	*
*k[]	*
*C:	*
!LO:TX:a:t=Lebhaft.	!
{4g	So
=1	=1
8gL	her-
8ccJ	.
4cc	-ʒig,
8e	wie
8e	mein
=2	=2
8eL	Lie-
8gJ	.
4g}	-ſel
{8fL	giebts
8eJ	.
=3	=3
4.d	halt
8d	nichts
8e	auf
8f	der
=4	=4
(4a	Welt,
4g)}	.
{4g	vom
=5	=5
8gL	Köpf-
8ccJ	.
4cc	-le
8e	bis
8e	ʒum
=6	=6
8eL	Fü-
8gJ	.
4g}	-ßel
{8fL	iſt
8eJ	.
=7	=7
4.d	ſie
8e	mit
8f	wohlbe-
8d	.
=8	=8
4c	-ſtellt.
4r;}	.
{8fL	Die
8eJ	.
=9	=9
4d	Wänglein
4d	.
8e	weiß
8f	und
=10	=10
(8g\L	roth,
8ccJ	.
4ee)}	.
{8fL	ihr
8eJ	.
=11	=11
4d	Mund
4d	wie
8e	Ʒu-
8f	-cker-
=12	=12
(8g\L	-brot
8ccJ	.
4ee)}	.
{8eeL	So
8bJ	.
=13	=13
8ccL	her-
8gJ	.
4g	-ʒig
8eeL	wie
8bJ	mein
=14	=14
8ccL	Lie-
8gJ	.
4g}	-ſel
{8ccL	giebt's
8bJ	.
=15	=15
4.a	halt
8f	nichts
8d	auf
8B	der
=16	=16
4c	Welt.
4r}	.
==	==
!!!AGN: Liebes - Lied, Liebes - Lust
!!!GTL: Liebeslieder - Liebeslust
!!!ONB: ESAC (Essen Associative Code) Database: BOEHME
!!!AMT: simple triple
!!!AIN: vox
!!!EED: Helmut Schaffrath
!!!EEV: 1.0
!!@@COMMENT:"Gedicht von Daniel Schubart. 1782. Durch's Mildheim. Liederbuch 1799 verbreitet und
!!ʒu Anfang des 19. Jahrh. viel geſungen. Eine andere Melodie von H. W. Frentag ſteht im Mildh. Liederb. 1799 
!!und in Härtel's Liederlexikon."
!!@@END:
!!!Text: D. Schubart
!!!URL-scan: https://archive.org/details/BoehmeVtLieder1895/page/n311/mode/2up
!!!ENC: Anna Maria Matuszewska
!!!EEV: 2024/05/07
*-	*-
